X:411
T:Skye barbeque
R:Reel
O:Scotland
C:Alisdair Fraser
S:SF Scottish Fiddlers 1995 handout
Z:Transcription, chords:Mike Long
M:C|
L:1/8
K:A
"F#m"c4 cdcB|Acfc acfc|"E"gfef gabg|"F#m"agfa "E"gfeB|\
"F#m"c4 cdcB|Acfc acfc|
"A"agfa "E"gfeg|[1 "F#m"f4 f2 B2:|[2 "F#m"f4 f2 g2\
|:"A"a2 ec Acec|"D"dcBA "E"GBEG|"A"Acec acec|
"D"dcBc "E"defg|\
"A"a2 ec Acec|"D"dcBA "E"GBEG|"A"Acec acec|\
[1 "D"dcBd "A"cAAg:|[2 "E"dcBd "A"cAAB|]
